dist/assets/img/catalog/star.svg

<svg width="20" height="20" viewBox="0 0 20 20" fill="none" xmlns="http://www.w3.org/2000/svg">
<g clip-path="url(#clip0)">
<path d="M19.9714 7.70541C19.9025 7.49326 19.7191 7.33869 19.4984 7.30662L13.2984 6.40565L10.5256 0.787416C10.4269 0.587417 10.2232 0.460815 10.0001 0.460815C9.77713 0.460815 9.57342 0.587456 9.47471 0.787416L6.70174 6.40569L0.501796 7.30662C0.281094 7.33869 0.0977347 7.4933 0.0288286 7.70541C-0.0401165 7.91752 0.0173834 8.15037 0.17707 8.30604L4.66331 12.6793L3.60441 18.8544C3.56671 19.0742 3.6571 19.2964 3.83753 19.4274C4.01792 19.5585 4.25706 19.5758 4.4546 19.472L10.0001 16.5566L15.5454 19.4721C15.6312 19.5171 15.7248 19.5394 15.8181 19.5394C15.9395 19.5394 16.0605 19.5016 16.1625 19.4275C16.3429 19.2964 16.4333 19.0742 16.3956 18.8544L15.3364 12.6793L19.8231 8.30607C19.9828 8.15037 20.0403 7.91752 19.9714 7.70541ZM14.2979 12.0551C14.1597 12.1897 14.0967 12.3837 14.1293 12.5738L15.0399 17.8823L10.2728 15.3759C10.1021 15.2862 9.89818 15.2862 9.72748 15.3759L4.96011 17.8823L5.87042 12.5737C5.903 12.3836 5.83999 12.1897 5.70194 12.0551L1.84527 8.29561L7.17514 7.52104C7.366 7.4933 7.53092 7.37346 7.61631 7.20053L10.0001 2.37062L12.3838 7.20049C12.4692 7.37342 12.6341 7.4933 12.825 7.52104L18.1549 8.29557L14.2979 12.0551Z" fill="black"/>
</g>
<defs>
<clipPath id="clip0">
<rect width="20" height="20" fill="white"/>
</clipPath>
</defs>
</svg>

<svg width="20" height="20" fill="none" xmlns="http://www.w3.org/2000/svg"><g clip-path="url(#clip0)"><path d="M19.971 7.705a.586.586 0 00-.473-.398l-6.2-.901L10.526.787a.586.586 0 00-1.051 0L6.702 6.406l-6.2.9a.586.586 0 00-.325 1l4.486 4.373-1.059 6.175a.586.586 0 00.85.618L10 16.557l5.545 2.915a.587.587 0 00.85-.618l-1.059-6.175 4.487-4.373a.586.586 0 00.148-.6zm-5.673 4.35a.586.586 0 00-.169.519l.91 5.308-4.766-2.506a.586.586 0 00-.546 0L4.96 17.882l.91-5.308a.586.586 0 00-.168-.519l-3.857-3.76 5.33-.774a.586.586 0 00.441-.32L10 2.37l2.384 4.83c.085.172.25.292.441.32l5.33.775-3.857 3.76z" fill="#000"/></g><defs><clipPath id="clip0"><path fill="#fff" d="M0 0h20v20H0z"/></clipPath></defs></svg>
